X: 17477
T: Hill Of Bruff, The
R: jig
M: 6/8
K: Dmixolydian
|:e|f2 a gfd|cAG E2 G|FDD cA/A/A|dAG E2 D|
fag ef/e/d|cAG EE/F/G|F2 D cA^G|Ad^c d2:|
|:g|fdd add|bag f2 d|FAd f/g/af|ged ^c2 e|
fdd ad/d/d|bag af/e/d|FD/D/D cA^G|Ad^c d2:|

